src/pos-icons/speedometer.svg

<svg height="24" viewBox="0 0 24 24" width="24" xmlns="http://www.w3.org/2000/svg"><path d="m12 16a3 3 0 0 1 -3-3c0-1.12.61-2.1 1.5-2.61l9.71-5.62-5.53 9.58c-.5.98-1.51 1.65-2.68 1.65m0-13c1.81 0 3.5.5 4.97 1.32l-2.1 1.21c-.87-.34-1.87-.53-2.87-.53a8 8 0 0 0 -8 8c0 2.21.89 4.21 2.34 5.65h.01c.39.39.39 1.02 0 1.41s-1.03.39-1.42.01c-1.81-1.81-2.93-4.31-2.93-7.07a10 10 0 0 1 10-10m10 10c0 2.76-1.12 5.26-2.93 7.07-.39.38-1.02.38-1.41-.01s-.39-1.02 0-1.41c1.45-1.45 2.34-3.44 2.34-5.65 0-1-.19-2-.54-2.9l1.21-2.1c.83 1.5 1.33 3.18 1.33 5z"/></svg>

<?xml version="1.0" encoding="UTF-8"?><!DOCTYPE svg PUBLIC "-//W3C//DTD SVG 1.1//EN" "http://www.w3.org/Graphics/SVG/1.1/DTD/svg11.dtd"><svg xmlns="http://www.w3.org/2000/svg" xmlns:xlink="http://www.w3.org/1999/xlink" version="1.1" id="mdi-speedometer" width="24" height="24" viewBox="0 0 24 24"><path d="M12,16A3,3 0 0,1 9,13C9,11.88 9.61,10.9 10.5,10.39L20.21,4.77L14.68,14.35C14.18,15.33 13.17,16 12,16M12,3C13.81,3 15.5,3.5 16.97,4.32L14.87,5.53C14,5.19 13,5 12,5A8,8 0 0,0 4,13C4,15.21 4.89,17.21 6.34,18.65H6.35C6.74,19.04 6.74,19.67 6.35,20.06C5.96,20.45 5.32,20.45 4.93,20.07V20.07C3.12,18.26 2,15.76 2,13A10,10 0 0,1 12,3M22,13C22,15.76 20.88,18.26 19.07,20.07V20.07C18.68,20.45 18.05,20.45 17.66,20.06C17.27,19.67 17.27,19.04 17.66,18.65V18.65C19.11,17.2 20,15.21 20,13C20,12 19.81,11 19.46,10.1L20.67,8C21.5,9.5 22,11.18 22,13Z" /></svg>
